assets/logo.svg

<?xml version="1.0" encoding="UTF-8"?>
<svg width="257px" height="257px" viewBox="0 0 257 257" version="1.1" xmlns="http://www.w3.org/2000/svg" xmlns:xlink="http://www.w3.org/1999/xlink">
    <!-- Generator: Sketch 50.2 (55047) - http://www.bohemiancoding.com/sketch -->
    <title>facebook-audiences/logo</title>
    <desc>Created with Sketch.</desc>
    <defs>
        <circle id="path-1" cx="125.5" cy="125.5" r="125.5"></circle>
    </defs>
    <g id="facebook-audiences/logo" stroke="none" stroke-width="1" fill="none" fill-rule="evenodd">
        <g id="Group" transform="translate(3.000000, 3.000000)">
            <mask id="mask-2" fill="white">
                <use xlink:href="#path-1"></use>
            </mask>
            <use id="Mask" fill="#3B5998" xlink:href="#path-1"></use>
            <g id="White" mask="url(#mask-2)" fill="#FFFFFF" fill-rule="nonzero">
                <g transform="translate(59.000000, 59.000000)" id="White_2_">
                    <path d="M125.40709,0.297761194 L7.59291045,0.297761194 C3.57313433,0.297761194 0.297761194,3.57313433 0.297761194,7.59291045 L0.297761194,125.40709 C0.297761194,129.426866 3.57313433,132.702239 7.59291045,132.702239 L71.0160448,132.702239 L71.0160448,81.4376866 L53.7458955,81.4376866 L53.7458955,61.4380597 L71.0160448,61.4380597 L71.0160448,46.6988806 C71.0160448,29.5776119 81.4873134,20.2973881 96.7227612,20.2973881 C104.01791,20.2973881 110.320522,20.8432836 112.156716,21.0914179 L112.156716,38.9570896 L101.586194,38.9570896 C93.2985075,38.9570896 91.6608209,42.8776119 91.6608209,48.6839552 L91.6608209,61.4380597 L111.46194,61.4380597 L108.881343,81.4376866 L91.6608209,81.4376866 L91.6608209,132.751866 L125.40709,132.751866 C129.426866,132.751866 132.702239,129.476493 132.702239,125.456716 L132.702239,7.59291045 C132.702239,3.52350746 129.476493,0.297761194 125.40709,0.297761194 Z"></path>
                </g>
            </g>
        </g>
    </g>
</svg>

<svg height="257" viewBox="0 0 257 257" width="257" xmlns="http://www.w3.org/2000/svg" xmlns:xlink="http://www.w3.org/1999/xlink"><defs><circle id="a" cx="125.5" cy="125.5" r="125.5"/><mask id="b" fill="#fff"><use fill="none" xlink:href="#a"/></mask></defs><g fill="none" fill-rule="evenodd" transform="translate(3 3)"><use fill="#3b5998" xlink:href="#a"/><g fill="#fff" fill-rule="nonzero" mask="url(#b)"><path d="m125.40709.29776119h-117.81417955c-4.01977612 0-7.29514926 3.27537314-7.29514926 7.29514926v117.81417955c0 4.019776 3.27537314 7.295149 7.29514926 7.295149h63.42313435v-51.2645524h-17.2701493v-19.9996269h17.2701493v-14.7391791c0-17.1212687 10.4712686-26.4014925 25.7067164-26.4014925 7.2951488 0 13.5977608.5458955 15.4339548.7940298v17.8656717h-10.570522c-8.2876865 0-9.9253731 3.9205223-9.9253731 9.7268656v12.7541045h19.8011191l-2.580597 19.9996269h-17.2205221v51.3141794h33.7462691c4.019776 0 7.295149-3.275373 7.295149-7.29515v-117.86380555c0-4.06940299-3.225746-7.29514926-7.295149-7.29514926z" transform="translate(59 59)"/></g></g></svg>
